X: 8743
T: Crystal Year, The
R: slide
M: 12/8
K: Eminor
DEF EBB DEF EBB|DAF Gdd zAF Gd2|
Bcc cAG cEB EAG|1 Eee dAG A2A GF2:|2 Eee dAG A5zE||
ABe ABe gAB efg|fAA fAf eGG E G2|
ABe ABe gAB efg|fAA fAf eG g2 f2:|

